resources/haticons/SVG/format_color_fill.svg

<!-- Generated by IcoMoon.io -->
<svg version="1.1" xmlns="http://www.w3.org/2000/svg" width="24" height="24" viewBox="0 0 24 24">
<title>format_color_fill</title>
<path d="M0 20.016h24v3.984h-24v-3.984zM18.984 11.484q2.016 2.203 2.016 3.516 0 0.797-0.609 1.406t-1.406 0.609-1.383-0.609-0.586-1.406q0-0.563 0.492-1.453t0.961-1.453zM5.203 9.984h9.609l-4.828-4.781zM16.547 8.953q0.469 0.469 0.469 1.078t-0.469 1.031l-5.484 5.484q-0.469 0.469-1.078 0.469-0.563 0-1.031-0.469l-5.531-5.484q-0.422-0.422-0.422-1.078 0-0.609 0.422-1.031l5.156-5.156-2.391-2.391 1.453-1.406z"></path>
</svg>

<svg xmlns="http://www.w3.org/2000/svg" width="24" height="24"><path d="M0 20.016h24V24H0v-3.984zm18.984-8.532Q21 13.687 21 15q0 .797-.609 1.406t-1.406.609-1.383-.609T17.016 15q0-.563.492-1.453t.961-1.453zm-13.781-1.5h9.609L9.984 5.203zm11.344-1.031q.469.469.469 1.078t-.469 1.031l-5.484 5.484q-.469.469-1.078.469-.563 0-1.031-.469l-5.531-5.484q-.422-.422-.422-1.078 0-.609.422-1.031l5.156-5.156-2.391-2.391L7.641 0z"/></svg>
